assets/Flashlight/Flat/flashlight_flat.svg

<svg width="32" height="32" viewBox="0 0 32 32" fill="none" xmlns="http://www.w3.org/2000/svg">
<path d="M14.14 2C14.14 1.58579 13.8042 1.25 13.39 1.25C12.9758 1.25 12.64 1.58579 12.64 2V6C12.64 6.41421 12.9758 6.75 13.39 6.75C13.8042 6.75 14.14 6.41421 14.14 6V2Z" fill="#F9C23C"/>
<path d="M5.58032 4.12964C5.28742 3.83675 4.81255 3.83675 4.51966 4.12964C4.22676 4.42254 4.22676 4.89741 4.51966 5.1903L7.62966 8.3003C7.92255 8.5932 8.39742 8.5932 8.69032 8.3003C8.98321 8.00741 8.98321 7.53254 8.69032 7.23964L5.58032 4.12964Z" fill="#F9C23C"/>
<path d="M1.25 13.14C1.25 12.7258 1.58579 12.39 2 12.39H5.89C6.30421 12.39 6.64 12.7258 6.64 13.14C6.64 13.5542 6.30421 13.89 5.89 13.89H2C1.58579 13.89 1.25 13.5542 1.25 13.14Z" fill="#F9C23C"/>
<path d="M17.0866 7.05107C17.9184 7.88288 16.4179 10.7321 13.735 13.415C11.0521 16.0979 8.20289 17.5984 7.37108 16.7666C6.53927 15.9348 8.03986 13.0856 10.7227 10.4027C13.4056 7.71985 16.2548 6.21927 17.0866 7.05107Z" fill="#F9C23C"/>
<path d="M20.6699 14.69L28.0899 22.11C29.6799 23.7 29.6699 26.3 28.0599 27.91C26.4499 29.52 23.8499 29.53 22.2599 27.94L14.7099 20.39C12.7199 20.61 10.6499 19.97 9.12988 18.44L12.8199 12.5L18.7599 8.81C20.3699 10.42 20.9999 12.62 20.6699 14.69Z" fill="#B4ACBC"/>
<path d="M7.05986 17.72L7.91986 18.58C8.26986 18.93 8.84986 18.93 9.19986 18.58L18.8999 8.87999C19.2499 8.52999 19.2499 7.94999 18.8999 7.59999L18.0399 6.74999C17.6899 6.39999 17.1099 6.39999 16.7599 6.74999L7.05986 16.45C6.70986 16.8 6.70986 17.37 7.05986 17.72Z" fill="#321B41"/>
<path d="M18.2302 19.09L19.4402 20.3C19.7502 20.61 20.2702 20.61 20.5802 20.3L20.6102 20.27C20.9202 19.96 20.9202 19.44 20.6102 19.13L19.4002 17.92C19.0902 17.61 18.5702 17.61 18.2602 17.92L18.2302 17.95C17.9102 18.26 17.9102 18.77 18.2302 19.09Z" fill="#F4F4F4"/>
</svg>

<svg xmlns="http://www.w3.org/2000/svg" width="32" height="32" fill="none"><path fill="#F9C23C" d="M14.14 2a.75.75 0 0 0-1.5 0v4a.75.75 0 0 0 1.5 0V2ZM5.58 4.13a.75.75 0 0 0-1.06 1.06L7.63 8.3a.75.75 0 1 0 1.06-1.06L5.58 4.13ZM1.25 13.14a.75.75 0 0 1 .75-.75h3.89a.75.75 0 0 1 0 1.5H2a.75.75 0 0 1-.75-.75ZM17.087 7.051c.831.832-.67 3.681-3.352 6.364-2.683 2.683-5.532 4.183-6.364 3.352-.832-.832.669-3.681 3.352-6.364s5.532-4.184 6.364-3.352Z"/><path fill="#B4ACBC" d="m20.67 14.69 7.42 7.42c1.59 1.59 1.58 4.19-.03 5.8-1.61 1.61-4.21 1.62-5.8.03l-7.55-7.55c-1.99.22-4.06-.42-5.58-1.95l3.69-5.94 5.94-3.69a6.782 6.782 0 0 1 1.91 5.88Z"/><path fill="#321B41" d="m7.06 17.72.86.86c.35.35.93.35 1.28 0l9.7-9.7c.35-.35.35-.93 0-1.28l-.86-.85a.911.911 0 0 0-1.28 0l-9.7 9.7a.9.9 0 0 0 0 1.27Z"/><path fill="#F4F4F4" d="m18.23 19.09 1.21 1.21c.31.31.83.31 1.14 0l.03-.03c.31-.31.31-.83 0-1.14l-1.21-1.21a.815.815 0 0 0-1.14 0l-.03.03c-.32.31-.32.82 0 1.14Z"/></svg>
